X:1
T:Hymn  " "
M:3/4
L:1/8
Q:80
C:/JHP
S:O FOR A CLOSER WALK WITH GOD
K:HP
[| A2 | \
{Gdc}d4{g}B2 | \
{G}A4{Gdc}de |
{gfg}f4e2 | \
{Gdc}d4f2 | | \
{ag}a4f2 |
{Gdc}d4f2 | \
{gef}e6 | \
{A}e4a2| |
{fg}f4e2 | \
{Gdc}d4{g}ef | \
{gf}g4f2 |
{gef}e4{g}f2 | | \
{g}A2{g}B2d2 | \
{g}f4{g}e2 |
{Gdc}d6 | \
{gdG}d4|]
